src/images/services-illustrations/icon-react-native.svg

<?xml version="1.0" encoding="UTF-8" standalone="no"?>
<svg width="124px" height="124px" viewBox="0 0 124 124" version="1.1" xmlns="http://www.w3.org/2000/svg" xmlns:xlink="http://www.w3.org/1999/xlink">
    <!-- Generator: Sketch 39.1 (31720) - http://www.bohemiancoding.com/sketch -->
    <title>icon-react-native</title>
    <desc>Created with Sketch.</desc>
    <defs></defs>
    <g id="Page-1" stroke="none" stroke-width="1" fill="none" fill-rule="evenodd">
        <g id="images-for-export" transform="translate(-4310.000000, -2375.000000)">
            <g id="icon-react-native" transform="translate(4310.000000, 2375.000000)">
                <g id="Group-12" transform="translate(6.000000, 36.000000)"></g>
                <path d="M66,85.9964815 C98.1235279,85.770275 124,74.6655981 124,61 C124,47.3344019 98.1235279,36.229725 66,36.0035185 L66,40.0034014 C95.9142647,40.2070512 120,49.5295617 120,61 C120,72.4704383 95.9142647,81.7929488 66,81.9965986 L66,85.9964815 Z" id="Combined-Shape" fill="#36383A"></path>
                <path d="M97.0573478,92.0622017 C111.300592,87.4982614 120.504049,80.2592142 120.504049,72.1093269 C120.504049,58.3022081 94.0888492,47.1093269 61.504049,47.1093269 C48.7281348,47.1093269 36.9006629,48.8299896 27.2419186,51.7542449 L31.856474,54.4184597 C40.411844,52.323898 50.586463,51.1093269 61.504049,51.1093269 C91.8797102,51.1093269 116.504049,60.5113471 116.504049,72.1093269 C116.504049,79.3119391 107.007191,85.6676366 92.5337443,89.450498 L97.0573478,92.0622017 Z" id="Combined-Shape" fill="#36383A" transform="translate(73.872984, 69.585764) rotate(-300.000000) translate(-73.872984, -69.585764) "></path>
                <path d="M97.05818,29.9397382 C111.296963,34.5038226 120.497043,41.741709 120.497043,49.8901013 C120.497043,63.69722 94.0818437,74.8901013 61.4970434,74.8901013 C48.7246546,74.8901013 36.9001847,73.170388 27.2429091,70.2476037 L31.858028,67.5830636 C40.4116245,69.6763401 50.5830982,70.8901013 61.4970434,70.8901013 C91.8727047,70.8901013 116.497043,61.488081 116.497043,49.8901013 C116.497043,42.6888808 107.003855,36.3342478 92.5351284,32.5511233 L97.05818,29.9397382 Z" id="Combined-Shape" fill="#36383A" transform="translate(73.869976, 52.414920) rotate(-60.000000) translate(-73.869976, -52.414920) "></path>
                <path d="M66,72.0303225 C71.6065,71.523364 76,66.7953468 76,61.0376595 C76,55.2799722 71.6065,50.551955 66,50.0449965 L66,72.0303225 Z" id="Combined-Shape" fill="#36383A"></path>
                <path d="M0,6.00171418 C0,2.68705896 2.68878596,0 5.99220045,0 L58.0077996,0 C61.3172005,0 64,2.69069268 64,6.00171418 L64,117.998286 C64,121.312941 61.311214,124 58.0077996,124 L5.99220045,124 C2.68279952,124 0,121.309307 0,117.998286 L0,6.00171418 Z M4,6.0011767 C4,4.89595733 4.90230818,4 5.99306965,4 L58.0069304,4 C59.1076723,4 60,4.90007978 60,6.0011767 L60,117.998823 C60,119.104043 59.0976918,120 58.0069304,120 L5.99306965,120 C4.89232768,120 4,119.09992 4,117.998823 L4,6.0011767 Z" id="Combined-Shape" fill="#36383A"></path>
                <path d="M8,16 L56,16 L56,100 L8,100 L8,16 Z M12,20 L52,20 L52,96 L12,96 L12,20 Z" id="Combined-Shape" fill="#36383A"></path>
                <rect id="Rectangle-10" fill="#36383A" x="20" y="8" width="24" height="4"></rect>
                <path d="M32,116 C35.3137085,116 38,113.313708 38,110 C38,106.686292 35.3137085,104 32,104 C28.6862915,104 26,106.686292 26,110 C26,113.313708 28.6862915,116 32,116 Z M32,112 C33.1045695,112 34,111.104569 34,110 C34,108.895431 33.1045695,108 32,108 C30.8954305,108 30,108.895431 30,110 C30,111.104569 30.8954305,112 32,112 Z" id="Combined-Shape" fill="#36383A"></path>
            </g>
        </g>
    </g>
</svg>

<svg width="124" height="124" viewBox="0 0 124 124" xmlns="http://www.w3.org/2000/svg"><title>icon-react-native</title><g fill="none" fill-rule="evenodd"><path d="M66 85.996c32.124-.226 58-11.33 58-24.996 0-13.666-25.876-24.77-58-24.996v4c29.914.203 54 9.526 54 20.996 0 11.47-24.086 20.793-54 20.997v4z" fill="#36383A"/><path d="M66 100.902c11.074 10.053 21.945 14.404 29.003 10.33 11.957-6.904 8.443-35.377-7.85-63.596C80.767 36.57 73.363 27.189 66 20.286v5.329c6.092 6.362 12.23 14.566 17.69 24.02 15.187 26.307 19.357 52.333 9.313 58.132-6.238 3.601-16.49-1.445-27.003-12.088v5.223z" fill="#36383A"/><path d="M66 21.096c11.072-10.05 21.94-14.398 28.997-10.324 11.957 6.904 8.443 35.377-7.85 63.596C80.762 85.429 73.36 94.809 66 101.71v-5.329c6.09-6.36 12.227-14.562 17.683-24.014 15.188-26.306 19.358-52.333 9.314-58.132C86.761 10.636 76.511 15.68 66 26.32v-5.223z" fill="#36383A"/><path d="M66 72.03c5.606-.507 10-5.235 10-10.992 0-5.758-4.394-10.486-10-10.993V72.03zM0 6.002C0 2.687 2.689 0 5.992 0h52.016C61.318 0 64 2.69 64 6.002v111.996c0 3.315-2.689 6.002-5.992 6.002H5.992C2.682 124 0 121.31 0 117.998V6.002zm4 0C4 4.895 4.902 4 5.993 4h52.014A2 2 0 0 1 60 6.001V118A2.004 2.004 0 0 1 58.007 120H5.993A2 2 0 0 1 4 117.999V6z" fill="#36383A"/><path d="M8 16h48v84H8V16zm4 4h40v76H12V20zM20 8h24v4H20zM32 116a6 6 0 1 0 0-12 6 6 0 0 0 0 12zm0-4a2 2 0 1 0 0-4 2 2 0 0 0 0 4z" fill="#36383A"/></g></svg>
